X:13442
T:Polska fr Fyn
S:Rasmus Storm book
R:Polska
O:Denmark
M:3/4
D:Rasmus Storm
K:Dm
[G2B2] [G,2D2] [A2c2] | \
[GB][G,D] [GB][Bd] [Ac][FA] |\
[G2B2] [G,2D2] [A2c2] |\
[GB][G,D] [GB][Bd] [Ac][GB] |\
[GB]>[FA] [FA][DF] [A,2D2] :|
|: \
[Ad]>[^ce] [df][eg] [fa][df] |\
[gb]>[fa] [fa][df] [eg][fa] |\
(3[df][eg][df] (3[^ce][Ac][ce] [E2A2] |
[Ad]>[^ce] [df][eg] [fa][df] |\
[gb]>[fa] [fa][df] [eg][fa] |\
(3[df][eg][df] (3[^ce][Ac][ce] [D2d2]
